img/mark.svg

<svg width="78" height="93" viewBox="0 0 78 93" fill="none" xmlns="http://www.w3.org/2000/svg">
<path d="M0 0H78V77.5L39 93L0 77.5V0Z" fill="#3391AC"/>
<path d="M19.9882 47.4055C19.4916 45.8248 17.4262 39.423 17.0194 37.9436H16.9766C16.5631 39.4261 14.5061 45.8257 14.0078 47.4055H19.9882ZM16.7416 37.2387H17.2542L22.0173 52.1899H21.5261L20.1377 47.8539H13.8582L12.4912 52.1899H12L16.7416 37.2387Z" fill="white"/>
<path d="M19.9882 47.4055C19.4916 45.8248 17.4262 39.423 17.0194 37.9436H16.9766C16.5631 39.4261 14.5061 45.8257 14.0078 47.4055H19.9882ZM16.7416 37.2387H17.2542L22.0173 52.1899H21.5261L20.1377 47.8539H13.8582L12.4912 52.1899H12L16.7416 37.2387Z" stroke="white" stroke-width="1.33333" stroke-miterlimit="10"/>
<path d="M28.1893 44.7785C31.1154 44.7785 31.9484 43.9241 31.9484 41.2115C31.9484 38.5416 31.1154 37.6874 28.168 37.6874H24.9855V44.7785H28.1893ZM24.5156 37.2387H28.168C31.3932 37.2387 32.4184 38.264 32.4184 41.2115C32.4184 43.7745 31.6708 44.9066 29.4069 45.1629L33.2087 52.1899H32.6748L28.8942 45.2057C28.4274 45.2504 25.5153 45.2174 24.9855 45.2269V52.1899H24.5156V37.2387Z" fill="white"/>
<path d="M28.1893 44.7785C31.1154 44.7785 31.9484 43.9241 31.9484 41.2115C31.9484 38.5416 31.1154 37.6874 28.168 37.6874H24.9855V44.7785H28.1893ZM24.5156 37.2387H28.168C31.3932 37.2387 32.4184 38.264 32.4184 41.2115C32.4184 43.7745 31.6708 44.9066 29.4069 45.1629L33.2087 52.1899H32.6748L28.8942 45.2057C28.4274 45.2504 25.5153 45.2174 24.9855 45.2269V52.1899H24.5156V37.2387Z" stroke="white" stroke-width="1.33333" stroke-miterlimit="10"/>
<path d="M38.5263 37.7086H34.1265V37.2387H43.4176V37.7086H39.0389L39.0176 52.1899H38.5263V37.7086Z" fill="white"/>
<path d="M38.5263 37.7086H34.1265V37.2387H43.4176V37.7086H39.0389L39.0176 52.1899H38.5263V37.7086Z" stroke="white" stroke-width="1.33333" stroke-miterlimit="10"/>
<path d="M59.1604 55.3927C59.2689 55.4167 59.2689 55.6337 59.1604 56.044C59.1133 56.1484 59.1665 56.3409 59.0155 56.3697C58.0947 56.4379 55.5912 56.6577 54.2838 56.7678C53.1556 56.8643 52.4531 56.9246 52.1757 56.9487C51.8981 56.9728 51.7714 56.9487 51.7957 56.8765C51.7596 56.6781 53.2145 56.2669 53.75 56.2069L55.3604 55.9354C49.7388 55.7302 44.5758 55.8208 39.8711 56.2069C39.7797 56.3697 39.5335 57.049 39.4548 57.2022C39.3221 57.5036 39.1048 57.6182 38.8034 57.5459C38.5621 57.4736 38.4534 57.3165 38.4777 57.0755C38.4583 56.9229 38.7874 56.4468 38.8578 56.2974C37.7359 56.406 36.9035 56.5083 36.3606 56.605C35.7548 56.6684 35.7042 55.642 36.3245 55.6097C36.3725 55.5976 37.0482 55.5374 38.3512 55.4288C38.5801 55.4045 38.9239 55.3804 39.3824 55.3564C42.9504 49.0405 48.668 41.5102 53.4785 36.1215C53.6714 35.9165 53.949 35.9707 54.3108 36.2843C54.5883 36.5137 54.6787 36.6764 54.5824 36.7729L54.4738 36.8091C52.7285 37.3063 42.8714 50.838 40.3958 55.284C44.7672 55.0133 55.2267 54.8794 59.1604 55.3927Z" fill="white"/>
<path d="M52.9356 44.2643C52.7006 44.2991 52.5878 43.9329 52.6823 43.7577C52.8211 43.3061 54.295 41.6227 54.7993 41.6225C55.1283 41.5912 55.435 41.8522 55.4508 42.1833C55.4628 42.3041 55.0645 42.6809 54.2564 43.3142C53.4482 43.9476 53.008 44.2643 52.9356 44.2643ZM48.1585 52.4795C47.9414 52.4795 47.7422 52.3528 47.5613 52.0995C47.0327 51.3549 47.3591 50.5488 47.8055 49.6384C48.1494 48.987 48.5504 48.378 49.009 47.811C50.1187 46.484 50.7822 45.7301 50.9995 45.549C51.3432 45.2545 51.6991 45.4311 51.8136 45.8747C51.8739 46.1401 51.8376 46.285 51.7052 46.3091C51.1202 46.3933 47.6265 50.7909 48.249 51.3937C48.8308 51.8511 52.0204 48.643 52.9175 47.7747C53.0984 47.5938 53.1826 47.6059 53.1708 47.811C53.1586 48.1487 53.038 48.4865 52.8089 48.8243L52.7185 48.9327C52.0824 49.5592 51.2879 50.3609 50.5832 50.9866C50.0241 51.4862 49.8164 51.6628 49.2623 52.0451C48.8849 52.2992 48.5514 52.4681 48.1585 52.4795Z" fill="white"/>
<path d="M50.4926 53.3115C50.0776 53.3366 49.8048 52.3845 50.0222 52.0993C51.1502 50.1443 53.3541 47.0189 54.8715 45.2774C55.0405 45.0724 55.2575 45.1389 55.5231 45.4765C55.7519 45.7659 55.8185 45.9713 55.7222 46.0916C55.6979 46.1279 55.6616 46.1459 55.6135 46.1459C55.3843 46.1459 54.7148 46.8397 53.605 48.2268C52.6036 49.5178 52.1452 50.1692 52.2297 50.1812L52.284 50.1449C53.8158 48.7697 55.2154 47.6026 56.4821 46.6436C57.7487 45.6846 58.5327 45.205 58.8344 45.205C58.9911 45.205 59.1118 45.2836 59.1963 45.4402C59.3529 45.5369 59.4316 45.6456 59.4316 45.7659C59.4316 45.8746 59.1027 46.3663 58.4454 47.2407C57.7877 48.1155 57.1756 48.99 56.6087 49.8646C56.0416 50.7392 55.8488 51.2669 56.0297 51.4478C56.5186 51.9329 60.2589 48.2206 60.7345 47.7746C60.8669 47.642 60.9453 47.6841 60.9696 47.9011C61.0176 48.2512 60.9152 48.5588 60.6621 48.824C59.7917 49.7107 58.6044 50.8631 57.5859 51.665C57.1249 52.0194 56.4699 52.5048 55.9573 52.5334C55.4467 52.5661 54.935 51.9665 54.9441 51.502C54.9441 51.1161 55.1762 50.5673 55.6405 49.8555C56.1049 49.1438 56.5423 48.5164 56.9526 47.9735C57.3626 47.4307 57.5375 47.1353 57.4772 47.0869C56.9819 46.9977 52.1745 51.2554 51.9583 51.665C51.7137 51.9496 51.3601 52.3839 51.1532 52.6601C51.0083 52.8484 50.8154 53.1072 50.6556 53.2391C50.5953 53.2872 50.5409 53.3115 50.4926 53.3115Z" fill="white"/>
<path d="M63.3671 47.25C64.0004 46.7916 64.2325 46.4781 64.0637 46.3091C63.8947 46.1402 63.5179 46.2941 62.9327 46.7705C62.3476 47.2471 61.7536 47.8652 61.1505 48.6253C61.9948 48.1669 62.7338 47.7086 63.3671 47.25ZM65.8371 47.7566C65.9456 47.648 66 47.6724 66 47.829C65.9879 48.203 65.7765 48.6374 65.3666 49.1317L65.0048 49.4937C63.3674 50.8822 60.2063 54.0573 59.0514 52.407C58.8222 52.1057 58.7139 51.78 58.7257 51.43C58.7414 49.5706 62.5379 45.1925 64.3894 45.1147C64.8526 45.1267 65.3749 45.5802 65.3305 46.0738C65.1796 47.5243 61.7004 49.3626 60.2276 49.9461C59.6485 50.8871 59.4858 51.5022 59.7391 51.7919C60.306 52.4433 62.3387 51.0983 65.8371 47.7566Z" fill="white"/>
<path d="M43.499 50.0576H43.1725V49.7311H43.499V50.0576Z" fill="white"/>
</svg>

<svg width="78" height="93" fill="none" xmlns="http://www.w3.org/2000/svg"><path d="M0 0h78v77.5L39 93 0 77.5V0z" fill="#3391AC"/><path d="M19.988 47.406c-.496-1.581-2.562-7.983-2.969-9.462h-.042c-.414 1.482-2.47 7.882-2.97 9.462h5.981zm-3.246-10.167h.512l4.763 14.95h-.49l-1.39-4.335h-6.279l-1.367 4.336H12l4.742-14.951z" fill="#fff"/><path d="M19.988 47.406c-.496-1.581-2.562-7.983-2.969-9.462h-.042c-.414 1.482-2.47 7.882-2.97 9.462h5.981zm-3.246-10.167h.512l4.763 14.95h-.49l-1.39-4.335h-6.279l-1.367 4.336H12l4.742-14.951z" stroke="#fff" stroke-width="1.333" stroke-miterlimit="10"/><path d="M28.19 44.779c2.925 0 3.758-.855 3.758-3.568 0-2.67-.833-3.524-3.78-3.524h-3.183v7.092h3.204zm-3.674-7.54h3.652c3.225 0 4.25 1.025 4.25 3.973 0 2.563-.747 3.695-3.011 3.95l3.802 7.028h-.534l-3.78-6.984c-.468.044-3.38.011-3.91.02v6.964h-.47V37.239z" fill="#fff"/><path d="M28.19 44.779c2.925 0 3.758-.855 3.758-3.568 0-2.67-.833-3.524-3.78-3.524h-3.183v7.092h3.204zm-3.674-7.54h3.652c3.225 0 4.25 1.025 4.25 3.973 0 2.563-.747 3.695-3.011 3.95l3.802 7.028h-.534l-3.78-6.984c-.468.044-3.38.011-3.91.02v6.964h-.47V37.239z" stroke="#fff" stroke-width="1.333" stroke-miterlimit="10"/><path d="M38.526 37.709h-4.4v-.47h9.292v.47h-4.38l-.02 14.48h-.492V37.71z" fill="#fff"/><path d="M38.526 37.709h-4.4v-.47h9.292v.47h-4.38l-.02 14.48h-.492V37.71z" stroke="#fff" stroke-width="1.333" stroke-miterlimit="10"/><path d="M59.16 55.393c.109.024.109.24 0 .651-.047.104.007.297-.144.326-.921.068-3.425.288-4.732.398l-2.108.18c-.278.025-.405 0-.38-.072-.036-.198 1.419-.61 1.954-.67l1.61-.27c-5.621-.206-10.784-.115-15.489.27-.091.164-.338.843-.416.996-.133.302-.35.416-.652.344-.24-.072-.35-.23-.325-.47-.02-.153.31-.63.38-.779-1.122.109-1.954.211-2.497.308-.606.063-.657-.963-.036-.995.047-.012.723-.073 2.026-.181a21.15 21.15 0 011.031-.073c3.568-6.316 9.286-13.846 14.096-19.235.193-.205.471-.15.833.163.277.23.368.392.271.489l-.108.036c-1.745.497-11.603 14.029-14.078 18.475 4.371-.27 14.83-.405 18.764.109z" fill="#fff"/><path d="M52.936 44.264c-.235.035-.348-.331-.254-.506.14-.452 1.613-2.135 2.117-2.136a.604.604 0 01.652.561c.012.121-.386.498-1.195 1.131-.808.634-1.248.95-1.32.95zm-4.778 8.215c-.217 0-.416-.126-.597-.38-.528-.744-.202-1.55.245-2.46a11.14 11.14 0 011.203-1.828c1.11-1.327 1.773-2.08 1.99-2.262.344-.294.7-.118.815.326.06.265.024.41-.109.434-.585.084-4.078 4.482-3.456 5.085.582.457 3.771-2.751 4.668-3.62.181-.18.266-.168.254.037-.012.338-.133.675-.362 1.013l-.09.109c-.637.626-1.431 1.428-2.136 2.054-.559.5-.767.676-1.32 1.058-.378.254-.712.423-1.105.434z" fill="#fff"/><path d="M50.493 53.312c-.415.025-.688-.927-.47-1.213 1.127-1.955 3.331-5.08 4.848-6.822.17-.205.386-.138.652.2.229.289.295.494.2.615a.122.122 0 01-.11.054c-.229 0-.898.694-2.008 2.08-1.001 1.292-1.46 1.943-1.375 1.955l.054-.036c1.532-1.375 2.931-2.542 4.198-3.501 1.267-.96 2.05-1.439 2.352-1.439.157 0 .278.079.362.235.157.097.236.206.236.326 0 .109-.33.6-.987 1.475a45.51 45.51 0 00-1.836 2.624c-.567.874-.76 1.402-.58 1.583.49.485 4.23-3.227 4.705-3.673.133-.133.211-.09.236.126.048.35-.055.658-.308.923-.87.887-2.058 2.04-3.076 2.841-.461.354-1.116.84-1.629.868-.51.033-1.022-.566-1.013-1.031 0-.386.232-.935.697-1.647.464-.711.901-1.339 1.312-1.881.41-.543.584-.839.524-.887-.495-.09-5.302 4.168-5.519 4.578a22.73 22.73 0 00-.805.995c-.145.188-.338.447-.497.58-.06.047-.115.072-.163.072z" fill="#fff"/><path d="M63.367 47.25c.633-.458.866-.772.697-.94-.17-.17-.546-.016-1.131.46-.585.477-1.18 1.095-1.782 1.855a20.326 20.326 0 002.216-1.375zm2.47.507c.109-.109.163-.085.163.072-.012.374-.224.808-.633 1.303l-.362.362c-1.638 1.388-4.799 4.563-5.954 2.913a1.494 1.494 0 01-.325-.977c.015-1.86 3.812-6.237 5.663-6.315.464.012.986.465.942.959-.151 1.45-3.63 3.289-5.103 3.872-.58.941-.742 1.556-.489 1.846.567.651 2.6-.694 6.098-4.035zm-22.338 2.301h-.327v-.327h.327v.327z" fill="#fff"/></svg>
